X: 1
T: John Pollard's Session At Burke's
M: 4/4
L: 1/8
R: reel
K: Edor
|:EF |G2 e2 d B2 A |BG ED EF GA |B2 e2 g f e |f6 Bc |
d2 B2 A G2 A |F2 E2 d2 e2 |Bg AF Ge GF |E6 :|
|:e2 |Bg AF Ge Fd |ed BA GB FA |ED EF (3GFG Ad|e2 B2 gF ed |
B2 (3ded A2 (3ded |GF EB A3 F |GB FA BA GF |E6 :|z8 ||
